X:690
T: Turn the Pig from the Tea Pot
B: No. III Fitzmaurice's New Collection of Irish Tunes (arr. BB)
M: 2/4
L: 1/8
Q: 1/4=120
R: polka
K: D
AB BF | AD DF/A/ | Bd cA | BE EF/G/ |
AF BF | AB/c/ de | fd ec| BA Bc/d/:|
AB/c/ dB | Ac e2 | AB/c/ df | cA A2|
AB/c/ dB | Ac e2 | fa/f/ ec | BA Bc :|
